;FLAVOR:Marlin
;TIME:4781
;Filament used: 1.44118m
;Layer height: 0.2
;MINX:131.368
;MINY:115.957
;MINZ:0.2
;MAXX:168.591
;MAXY:190.985
;MAXZ:13
;POSTPROCESSED
;Generated with Cura_SteamEngine 4.7.1
M140 S50
M105
M190 S50
M104 S200
M105
M109 S200
M82 ;absolute extrusion mode
M201 X500.00 Y500.00 Z100.00 E5000.00 ;Setup machine max acceleration
M203 X500.00 Y500.00 Z10.00 E50.00 ;Setup machine max feedrate
M204 P500.00 R1000.00 T500.00 ;Setup Print/Retract/Travel acceleration
M205 X8.00 Y8.00 Z0.40 E5.00 ;Setup Jerk
M220 S100 ;Reset Feedrate
M221 S100 ;Reset Flowrate

G28 ;Home

G92 E0 ;Reset Extruder
G1 Z2.0 F3000 ;Move Z Axis up
G1 X10.1 Y20 Z0.28 F5000.0 ;Move to start position
G1 X10.1 Y200.0 Z0.28 F1500.0 E15 ;Draw the first line
G1 X10.4 Y200.0 Z0.28 F5000.0 ;Move to side a little
G1 X10.4 Y20 Z0.28 F1500.0 E30 ;Draw the second line
G92 E0 ;Reset Extruder
G1 Z2.0 F3000 ;Move Z Axis up

G92 E0
G92 E0
G1 F2700 E-5
;LAYER_COUNT:65
;LAYER:0
M107
G0 F6000 X135.269 Y120.916 Z0.2
;TYPE:SKIRT
G1 F2700 E0
G1 F1200 X135.618 Y120.53 E0.01731
G1 X135.73 Y120.412 E0.02272
G1 X136.121 Y120.021 E0.04111
G1 X136.438 Y119.719 E0.05567
G1 X137.144 Y119.101 E0.08688
G1 X137.655 Y118.715 E0.10818
G1 X137.8 Y118.612 E0.1141
G1 X138.214 Y118.332 E0.13072
G1 X138.464 Y118.171 E0.14061
G1 X139.563 Y117.55 E0.18259
G1 X140.073 Y117.299 E0.2015
G1 X141.239 Y116.806 E0.2436
G1 X141.312 Y116.78 E0.24618
G1 X141.831 Y116.609 E0.26436
G1 X142.1 Y116.528 E0.2737
G1 X143.009 Y116.296 E0.3049
G1 X143.942 Y116.142 E0.33635
G1 X144.213 Y116.109 E0.34543
G1 X144.496 Y116.078 E0.3549
G1 X144.747 Y116.054 E0.36329
G1 X145.374 Y116.012 E0.38419
G1 X145.636 Y116.002 E0.39291
G1 X145.931 Y115.995 E0.40273
G1 X146.176 Y115.992 E0.41088
G1 X153.239 Y115.957 E0.64579
G1 X153.963 Y115.963 E0.66988
G1 X154.638 Y115.99 E0.69234
G1 X154.767 Y115.999 E0.69665
G1 X155.18 Y116.035 E0.71043
G1 X155.551 Y116.075 E0.72284
G1 X156.478 Y116.216 E0.75403
G1 X157.332 Y116.418 E0.78322
G1 X157.4 Y116.437 E0.78557
G1 X158.006 Y116.625 E0.80667
G1 X158.292 Y116.723 E0.81673
G1 X158.708 Y116.875 E0.83146
G1 X159.169 Y117.054 E0.84791
G1 X160.028 Y117.43 E0.87909
G1 X160.734 Y117.809 E0.90574
G1 X160.871 Y117.889 E0.91102
G1 X161.433 Y118.24 E0.93306
G1 X161.737 Y118.443 E0.94522
G1 X162.494 Y118.997 E0.97642
G1 X162.889 Y119.328 E0.99356
G1 X163.054 Y119.473 E1.00086
G1 X163.503 Y119.891 E1.02127
G1 X163.794 Y120.177 E1.03484
G1 X164.445 Y120.874 E1.06656
G1 X164.551 Y120.998 E1.07199
G1 X164.886 Y121.409 E1.08962
G1 X165.113 Y121.702 E1.10195
G1 X165.702 Y122.54 E1.13602
G1 X165.81 Y122.71 E1.14272
G1 X166.072 Y123.146 E1.15963
G1 X166.278 Y123.506 E1.17343
G1 X166.553 Y124.017 E1.19273
G1 X166.613 Y124.136 E1.19716
G1 X166.839 Y124.611 E1.21466
G1 X167.015 Y125.006 E1.22904
G1 X167.009 Y125.009 E1.22926
G1 X167.269 Y125.622 E1.25141
G1 X167.464 Y126.187 E1.27129
G1 X167.569 Y126.521 E1.28294
G1 X167.693 Y126.946 E1.29766
G1 X167.873 Y127.611 E1.32057
G1 X168.078 Y128.517 E1.35147
G1 X168.179 Y129.176 E1.37364
G1 X168.231 Y129.614 E1.38831
G1 X168.264 Y129.957 E1.39978
G1 X168.31 Y130.522 E1.41863
G1 X168.344 Y131.207 E1.44144
G1 X168.371 Y132.676 E1.49031
G1 X168.584 Y173.132 E2.8359
G1 X168.591 Y174.408 E2.87834
G1 X168.582 Y175.515 E2.91516
G1 X168.566 Y176.017 E2.93186
G1 X168.532 Y176.649 E2.95292
G1 X168.442 Y177.578 E2.98396
G1 X168.424 Y177.707 E2.98829
G1 X168.349 Y178.173 E3.00399
G1 X168.3 Y178.44 E3.01302
G1 X168.132 Y179.203 E3.039
G1 X168.05 Y179.516 E3.04977
G1 X167.99 Y179.735 E3.05732
G1 X167.914 Y180 E3.06649
G1 X167.758 Y180.518 E3.08448
G1 X167.566 Y181.097 E3.10477
G1 X167.496 Y181.29 E3.1116
G1 X167.346 Y181.679 E3.12546
G1 X167.307 Y181.775 E3.12891
G1 X166.944 Y182.575 E3.15813
G1 X166.754 Y182.953 E3.1722
G1 X166.588 Y183.27 E3.1841
G1 X166.551 Y183.338 E3.18668
G1 X166.039 Y184.187 E3.21965
G1 X165.696 Y184.701 E3.24021
G1 X165.466 Y185.032 E3.25361
G1 X165.396 Y185.129 E3.25759
G1 X164.832 Y185.846 E3.28793
G1 X164.695 Y186.006 E3.29494
G1 X164.53 Y186.194 E3.30326
G1 X164.383 Y186.358 E3.31058
G1 X163.728 Y187.029 E3.34177
G1 X162.957 Y187.69 E3.37555
G1 X162.507 Y188.041 E3.39453
G1 X162.228 Y188.252 E3.40616
G1 X161.928 Y188.471 E3.41852
G1 X161.147 Y188.991 E3.44972
G1 X160.399 Y189.406 E3.47818
G1 X160.294 Y189.459 E3.48209
G1 X159.805 Y189.691 E3.50009
G1 X159.58 Y189.791 E3.50828
G1 X158.707 Y190.135 E3.53949
G1 X157.434 Y190.491 E3.58345
G1 X156.707 Y190.648 E3.60819
G1 X156.331 Y190.723 E3.62094
G1 X156.114 Y190.762 E3.62827
G1 X155.184 Y190.888 E3.65949
G1 X154.562 Y190.928 E3.68022
G1 X154.311 Y190.937 E3.68857
G1 X154.088 Y190.943 E3.69599
G1 X153.784 Y190.947 E3.70611
G1 X146.694 Y190.985 E3.94192
G1 X146.185 Y190.981 E3.95885
G1 X145.472 Y190.952 E3.98259
G1 X144.827 Y190.905 E4.0041
G1 X143.895 Y190.797 E4.0353
G1 X142.877 Y190.585 E4.06989
G1 X142.846 Y190.577 E4.07095
G1 X142.072 Y190.346 E4.09782
G1 X141.516 Y190.158 E4.11734
G1 X141.139 Y190.024 E4.13065
G1 X140.928 Y189.944 E4.13815
G1 X140.066 Y189.574 E4.16935
G1 X139.239 Y189.132 E4.20054
G1 X138.493 Y188.651 E4.23006
G1 X138.016 Y188.315 E4.24947
G1 X137.741 Y188.114 E4.2608
G1 X137.471 Y187.911 E4.27203
G1 X136.746 Y187.316 E4.30323
G1 X136.279 Y186.873 E4.32464
G1 X136.117 Y186.71 E4.33228
G1 X135.588 Y186.139 E4.35817
G1 X135.319 Y185.827 E4.37187
G1 X134.737 Y185.091 E4.40308
G1 X134.389 Y184.579 E4.42367
G1 X134.273 Y184.398 E4.43082
G1 X134.13 Y184.169 E4.4398
G1 X134.022 Y183.991 E4.44672
G1 X133.889 Y183.766 E4.45542
G1 X133.589 Y183.244 E4.47544
G1 X133.157 Y182.412 E4.50662
G1 X132.904 Y181.826 E4.52785
G1 X132.714 Y181.348 E4.54496
G1 X132.489 Y180.729 E4.56687
G1 X132.398 Y180.453 E4.57653
G1 X132.16 Y179.621 E4.60531
G1 X132.072 Y179.261 E4.61764
G1 X131.951 Y178.707 E4.6365
G1 X131.887 Y178.371 E4.64788
G1 X131.822 Y177.99 E4.66073
G1 X131.793 Y177.802 E4.66706
G1 X131.69 Y176.874 E4.69811
G1 X131.64 Y176.161 E4.72189
G1 X131.61 Y175.551 E4.7422
G1 X131.594 Y174.778 E4.76792
G1 X131.592 Y174.608 E4.77357
G1 X131.368 Y132.296 E6.18089
G1 X131.369 Y132.08 E6.18808
G1 X131.377 Y131.523 E6.20661
G1 X131.404 Y130.899 E6.22738
G1 X131.445 Y130.324 E6.24655
G1 X131.472 Y130.005 E6.2572
G1 X131.524 Y129.488 E6.27448
G1 X131.605 Y128.863 E6.29544
G1 X131.622 Y128.756 E6.29905
G1 X131.748 Y128.096 E6.3214
G1 X131.802 Y127.853 E6.32968
G1 X131.963 Y127.219 E6.35143
G1 X132.152 Y126.557 E6.37433
G1 X132.447 Y125.667 E6.40551
G1 X132.699 Y125.061 E6.42734
G1 X132.803 Y124.83 E6.43577
G1 X132.914 Y124.59 E6.44456
G1 X133.089 Y124.225 E6.45803
G1 X133.096 Y124.228 E6.45828
G1 X133.389 Y123.637 E6.48022
G1 X133.865 Y122.853 E6.51073
G1 X134.29 Y122.214 E6.53625
G1 X134.54 Y121.854 E6.55083
G1 X134.687 Y121.651 E6.55916
G1 X135.269 Y120.916 E6.59035
G0 F6000 X135.582 Y121.164
G1 F1200 X135.908 Y120.806 E6.60645
G1 X136.02 Y120.688 E6.61186
G1 X136.396 Y120.31 E6.6296
G1 X136.713 Y120.008 E6.64416
G1 X137.407 Y119.403 E6.67478
G1 X137.886 Y119.041 E6.69475
G1 X138.031 Y118.938 E6.70066
G1 X138.431 Y118.668 E6.71672
G1 X138.681 Y118.507 E6.72661
G1 X139.739 Y117.908 E6.76704
G1 X140.249 Y117.657 E6.78595
G1 X141.374 Y117.182 E6.82657
G1 X141.447 Y117.156 E6.82914
G1 X141.947 Y116.992 E6.84664
G1 X142.216 Y116.911 E6.85599
G1 X143.108 Y116.684 E6.8866
G1 X143.991 Y116.539 E6.91636
G1 X144.262 Y116.506 E6.92544
G1 X144.534 Y116.476 E6.93455
G1 X144.785 Y116.452 E6.94293
G1 X145.39 Y116.412 E6.9631
G1 X145.652 Y116.402 E6.97182
G1 X145.936 Y116.395 E6.98127
G1 X146.178 Y116.392 E6.98932
G1 X153.236 Y116.357 E7.22407
G1 X153.96 Y116.363 E7.24815
G1 X154.61 Y116.389 E7.26979
G1 X154.739 Y116.398 E7.27409
G1 X155.137 Y116.433 E7.28738
G1 X155.508 Y116.473 E7.29979
G1 X156.418 Y116.611 E7.3304
G1 X157.225 Y116.803 E7.35799
G1 X157.293 Y116.822 E7.36034
G1 X157.876 Y117.003 E7.38064
G1 X158.162 Y117.101 E7.3907
G1 X158.563 Y117.248 E7.4049
G1 X159.024 Y117.427 E7.42135
G1 X159.867 Y117.797 E7.45197
G1 X160.532 Y118.154 E7.47708
G1 X160.669 Y118.234 E7.48235
G1 X161.211 Y118.573 E7.50362
G1 X161.515 Y118.776 E7.51577
G1 X162.257 Y119.32 E7.54637
G1 X162.625 Y119.629 E7.56236
G1 X162.79 Y119.774 E7.56966
G1 X163.223 Y120.176 E7.58931
G1 X163.514 Y120.462 E7.60288
G1 X164.141 Y121.134 E7.63345
G1 X164.247 Y121.258 E7.63888
G1 X164.569 Y121.654 E7.65586
G1 X164.796 Y121.947 E7.66818
G1 X165.364 Y122.755 E7.70103
G1 X165.472 Y122.925 E7.70773
G1 X165.725 Y123.344 E7.72401
G1 X165.931 Y123.704 E7.73781
G1 X166.196 Y124.197 E7.75642
G1 X166.256 Y124.316 E7.76086
G1 X166.473 Y124.774 E7.77771
G1 X166.649 Y125.169 E7.79209
G1 X166.645 Y125.171 E7.79224
G1 X166.924 Y125.841 E7.81638
G1 X167.082 Y126.307 E7.83275
G1 X167.187 Y126.641 E7.84439
G1 X167.307 Y127.05 E7.85857
G1 X167.487 Y127.715 E7.88148
G1 X167.684 Y128.589 E7.91128
G1 X167.782 Y129.225 E7.93269
G1 X167.811 Y129.461 E7.94059
G1 X167.843 Y129.752 E7.95033
G1 X167.865 Y129.99 E7.95828
G1 X167.911 Y130.555 E7.97713
G1 X167.944 Y131.214 E7.99908
G1 X167.971 Y132.678 E8.04778
G1 X168.184 Y173.135 E9.39341
G1 X168.191 Y174.405 E9.43565
G1 X168.182 Y175.512 E9.47247
G1 X168.167 Y175.995 E9.48854
G1 X168.133 Y176.627 E9.50959
G1 X168.046 Y177.523 E9.53953
G1 X168.028 Y177.652 E9.54386
G1 X167.956 Y178.1 E9.55896
G1 X167.907 Y178.367 E9.56798
G1 X167.745 Y179.103 E9.59305
G1 X167.664 Y179.41 E9.60361
G1 X167.604 Y179.629 E9.61116
G1 X167.531 Y179.885 E9.62002
G1 X167.375 Y180.403 E9.63801
G1 X167.19 Y180.96 E9.65753
G1 X167.12 Y181.153 E9.66436
G1 X166.976 Y181.529 E9.67775
G1 X166.937 Y181.625 E9.6812
G1 X166.587 Y182.395 E9.70933
G1 X166.397 Y182.773 E9.7234
G1 X166.237 Y183.079 E9.73488
G1 X166.2 Y183.147 E9.73746
G1 X165.706 Y183.965 E9.76924
G1 X165.363 Y184.479 E9.7898
G1 X165.142 Y184.798 E9.8027
G1 X165.072 Y184.895 E9.80668
G1 X164.528 Y185.586 E9.83593
G1 X164.391 Y185.746 E9.84294
G1 X164.232 Y185.927 E9.85095
G1 X164.085 Y186.091 E9.85828
G1 X163.442 Y186.749 E9.88888
G1 X162.711 Y187.374 E9.92086
G1 X162.261 Y187.725 E9.93985
G1 X161.992 Y187.928 E9.95105
G1 X161.692 Y188.147 E9.96341
G1 X160.925 Y188.658 E9.99406
G1 X160.218 Y189.049 E10.02093
G1 X160.113 Y189.102 E10.02484
G1 X159.642 Y189.325 E10.04218
G1 X159.417 Y189.425 E10.05037
G1 X158.56 Y189.762 E10.081
G1 X157.35 Y190.1 E10.12278
G1 X156.623 Y190.257 E10.14752
G1 X156.26 Y190.329 E10.15983
G1 X156.043 Y190.368 E10.16716
G1 X155.131 Y190.491 E10.19777
G1 X154.548 Y190.528 E10.2172
G1 X154.082 Y190.543 E10.2327
G1 X153.782 Y190.547 E10.24268
G1 X146.697 Y190.585 E10.47834
G1 X146.188 Y190.581 E10.49527
G1 X145.501 Y190.553 E10.51813
G1 X144.856 Y190.506 E10.53964
G1 X143.941 Y190.399 E10.57028
G1 X142.977 Y190.198 E10.60304
G1 X142.946 Y190.19 E10.6041
G1 X142.2 Y189.968 E10.62999
G1 X141.644 Y189.78 E10.64951
G1 X141.281 Y189.65 E10.66233
G1 X141.07 Y189.57 E10.66984
G1 X140.224 Y189.206 E10.70047
G1 X139.413 Y188.771 E10.73108
G1 X138.724 Y188.324 E10.7584
G1 X138.247 Y187.988 E10.7778
G1 X137.981 Y187.794 E10.78875
G1 X137.711 Y187.591 E10.79999
G1 X137 Y187.007 E10.83059
G1 X136.563 Y186.591 E10.85066
G1 X136.401 Y186.428 E10.8583
G1 X135.891 Y185.878 E10.88325
G1 X135.622 Y185.566 E10.89695
G1 X135.052 Y184.843 E10.92757
G1 X134.726 Y184.364 E10.94684
G1 X134.61 Y184.183 E10.95399
G1 X134.472 Y183.962 E10.96266
G1 X134.364 Y183.784 E10.96958
G1 X134.236 Y183.567 E10.97796
G1 X133.936 Y183.045 E10.99799
G1 X133.512 Y182.227 E11.02863
G1 X133.276 Y181.678 E11.04851
G1 X133.086 Y181.2 E11.06562
G1 X132.869 Y180.604 E11.08671
G1 X132.778 Y180.328 E11.09638
G1 X132.548 Y179.526 E11.12413
G1 X132.46 Y179.166 E11.13646
G1 X132.344 Y178.632 E11.15463
G1 X132.28 Y178.296 E11.16601
G1 X132.217 Y177.929 E11.17839
G1 X132.188 Y177.741 E11.18472
G1 X132.089 Y176.846 E11.21467
G1 X132.051 Y176.288 E11.23327
G1 X132.039 Y176.131 E11.23851
G1 X132.01 Y175.542 E11.25812
G1 X131.994 Y174.769 E11.28384
G1 X131.992 Y174.606 E11.28926
G1 X131.768 Y132.294 E12.69658
G1 X131.769 Y132.086 E12.7035
G1 X131.777 Y131.529 E12.72203
G1 X131.803 Y130.927 E12.74207
G1 X131.844 Y130.352 E12.76124
G1 X131.87 Y130.045 E12.77149
G1 X131.922 Y129.528 E12.78877
G1 X132 Y128.926 E12.80896
G1 X132.017 Y128.819 E12.81256
G1 X132.138 Y128.183 E12.8341
G1 X132.192 Y127.94 E12.84238
G1 X132.347 Y127.329 E12.86334
G1 X132.536 Y126.667 E12.88624
G1 X132.827 Y125.794 E12.91685
G1 X133.063 Y125.225 E12.93734
G1 X133.167 Y124.994 E12.94576
G1 X133.275 Y124.763 E12.95424
G1 X133.45 Y124.398 E12.96771
G1 X133.457 Y124.401 E12.96796
G1 X133.748 Y123.816 E12.98969
G1 X134.198 Y123.075 E13.01853
G1 X134.623 Y122.436 E13.04405
G1 X134.864 Y122.089 E13.0581
G1 X135.011 Y121.886 E13.06644
G1 X135.582 Y121.164 E13.09705
G0 F6000 X136.198 Y121.081
G1 F1200 X136.31 Y120.963 E13.10246
G1 X136.672 Y120.6 E13.11952
G1 X136.989 Y120.298 E13.13408
G1 X137.67 Y119.705 E13.16411
G1 X138.118 Y119.367 E13.18278
G1 X138.263 Y119.264 E13.18869
G1 X138.647 Y119.004 E13.20412
G1 X138.897 Y118.843 E13.21401
G1 X139.916 Y118.267 E13.25294
G1 X140.426 Y118.016 E13.27185
G1 X141.508 Y117.559 E13.31091
G1 X141.581 Y117.533 E13.31349
G1 X142.062 Y117.375 E13.33033
G1 X142.331 Y117.294 E13.33967
G1 X143.206 Y117.072 E13.3697
G1 X144.039 Y116.936 E13.39777
G1 X144.31 Y116.903 E13.40685
G1 X144.572 Y116.874 E13.41562
G1 X144.823 Y116.85 E13.424
G1 X145.405 Y116.811 E13.4434
G1 X145.667 Y116.801 E13.45212
G1 X145.94 Y116.795 E13.46121
G1 X146.18 Y116.792 E13.46919
G1 X153.233 Y116.757 E13.70378
G1 X153.957 Y116.763 E13.72786
G1 X154.582 Y116.788 E13.74866
G1 X154.711 Y116.797 E13.75296
G1 X155.094 Y116.831 E13.76575
G1 X155.465 Y116.871 E13.77816
G1 X156.358 Y117.007 E13.80821
G1 X157.117 Y117.188 E13.83416
G1 X157.185 Y117.207 E13.83651
G1 X157.746 Y117.382 E13.85605
G1 X158.032 Y117.48 E13.86611
G1 X158.418 Y117.621 E13.87978
G1 X158.879 Y117.8 E13.89622
G1 X159.706 Y118.163 E13.92626
G1 X160.33 Y118.5 E13.94985
G1 X160.467 Y118.58 E13.95513
G1 X160.988 Y118.905 E13.97555
G1 X161.292 Y119.108 E13.98771
G1 X162.361 Y119.929 E14.03254
G1 X162.526 Y120.074 E14.03985
G1 X162.943 Y120.461 E14.05877
G1 X163.234 Y120.747 E14.07234
G1 X163.837 Y121.394 E14.10175
G1 X163.943 Y121.518 E14.10718
G1 X164.253 Y121.899 E14.12352
G1 X164.48 Y122.192 E14.13584
G1 X165.027 Y122.969 E14.16745
G1 X165.135 Y123.139 E14.17415
G1 X165.378 Y123.543 E14.18983
G1 X165.584 Y123.903 E14.20362
G1 X165.839 Y124.377 E14.22153
G1 X165.899 Y124.496 E14.22596
G1 X166.108 Y124.937 E14.24219
G1 X166.284 Y125.332 E14.25657
G1 X166.279 Y125.334 E14.25675
G1 X166.7 Y126.427 E14.29571
G1 X166.805 Y126.761 E14.30735
G1 X166.921 Y127.155 E14.32101
G1 X167.101 Y127.82 E14.34393
G1 X167.29 Y128.66 E14.37257
G1 X167.385 Y129.274 E14.39323
G1 X167.414 Y129.51 E14.40114
G1 X167.445 Y129.793 E14.41061
G1 X167.466 Y130.022 E14.41826
G1 X167.512 Y130.587 E14.43711
G1 X167.544 Y131.222 E14.45826
G1 X167.571 Y132.68 E14.50676
G1 X167.784 Y173.137 E15.85238
G1 X167.791 Y174.402 E15.89446
G1 X167.782 Y175.509 E15.93128
G1 X167.767 Y175.974 E15.94675
G1 X167.733 Y176.606 E15.9678
G1 X167.65 Y177.468 E15.99661
G1 X167.632 Y177.597 E16.00094
G1 X167.562 Y178.028 E16.01546
G1 X167.513 Y178.295 E16.02449
G1 X167.357 Y179.003 E16.0486
G1 X167.278 Y179.304 E16.05895
G1 X167.218 Y179.523 E16.0665
G1 X167.148 Y179.769 E16.07501
G1 X166.992 Y180.287 E16.093
G1 X166.814 Y180.824 E16.11182
G1 X166.744 Y181.017 E16.11865
G1 X166.605 Y181.378 E16.13152
G1 X166.566 Y181.474 E16.13496
G1 X166.229 Y182.216 E16.16207
G1 X166.039 Y182.594 E16.17614
G1 X165.886 Y182.888 E16.18716
G1 X165.849 Y182.956 E16.18974
G1 X165.373 Y183.743 E16.22033
G1 X165.03 Y184.257 E16.24088
G1 X164.817 Y184.564 E16.25331
G1 X164.747 Y184.661 E16.25729
G1 X164.224 Y185.326 E16.28543
G1 X164.087 Y185.486 E16.29243
G1 X163.934 Y185.66 E16.30014
G1 X163.787 Y185.824 E16.30746
G1 X163.155 Y186.469 E16.3375
G1 X162.465 Y187.059 E16.36769
G1 X162.015 Y187.41 E16.38667
G1 X161.756 Y187.605 E16.39746
G1 X161.456 Y187.824 E16.40981
G1 X160.704 Y188.324 E16.43985
G1 X160.038 Y188.692 E16.46516
G1 X159.933 Y188.745 E16.46907
G1 X159.48 Y188.96 E16.48574
G1 X159.255 Y189.06 E16.49393
G1 X158.414 Y189.39 E16.52398
